usr/share/icons/biglinux-icons-material/scalable/actions/flower-shape.svg

<svg version="1.1" viewBox="0 0 24 24" xmlns="http://www.w3.org/2000/svg">
    <defs>
        <style type="text/css" id="current-color-scheme">.ColorScheme-Text {
        color:#363636;
      }</style>
    </defs><g transform="translate(1,1)">
    <path class="ColorScheme-Text" d="m11 3c-1.104854 0-2.34375 2.34375-2.34375 2.34375s-2.5317363-0.7807637-3.3125 0 0 3.3125 0 3.3125-2.34375 1.238896-2.34375 2.34375 2.34375 2.34375 2.34375 2.34375-0.7807637 2.531736 0 3.3125 3.3125 0 3.3125 0 1.238896 2.34375 2.34375 2.34375 2.34375-2.34375 2.34375-2.34375 2.531736 0.780764 3.3125 0 0-3.3125 0-3.3125 2.34375-1.238896 2.34375-2.34375-2.34375-2.34375-2.34375-2.34375 0.780764-2.5317363 0-3.3125-3.3125 0-3.3125 0-1.238896-2.34375-2.34375-2.34375zm0 4c2.209139 0 4 1.790861 4 4s-1.790861 4-4 4-4-1.790861-4-4 1.790861-4 4-4z" fill="currentColor"/>
    <path d="m9.5274333 15.294868c-1.1591899-0.429129-2.0784984-1.29406-2.6327268-2.476999-0.3095166-0.660629-0.3351914-0.802305-0.3351914-1.849594 0-1.0492786 0.025297-1.1881666 0.3380019-1.8556682 0.5745381-1.2264151 1.5608241-2.1145282 2.7972437-2.5188122 0.4283053-0.1400473 0.8197113-0.1760051 1.5596093-0.1432793 0.850714 0.037627 1.086788 0.092971 1.701065 0.3987942 3.415951 1.7006524 3.413202 6.5386465-0.0047 8.2402615-0.649228 0.323223-0.820773 0.360018-1.792229 0.38443-0.840835 0.02113-1.1952809-0.01779-1.6310903-0.179133z" class="ColorScheme-Text" fill="currentColor" fill-opacity=".5"/>
</g></svg>

<svg xmlns="http://www.w3.org/2000/svg" viewBox="0 0 22 22">
  <defs id="defs3051">
    <style type="text/css" id="current-color-scheme">
      .ColorScheme-Text {
        color:#363636;
      }
      </style>
  </defs>
 <path 
     style="fill:currentColor;fill-opacity:1;stroke:none" 
     d="M 11 3 C 9.895146 3 8.65625 5.34375 8.65625 5.34375 C 8.65625 5.34375 6.1245137 4.5629863 5.34375 5.34375 C 4.5629863 6.1245137 5.34375 8.65625 5.34375 8.65625 C 5.34375 8.65625 3 9.895146 3 11 C 3 12.104854 5.34375 13.34375 5.34375 13.34375 C 5.34375 13.34375 4.5629863 15.875486 5.34375 16.65625 C 6.1245137 17.437014 8.65625 16.65625 8.65625 16.65625 C 8.65625 16.65625 9.895146 19 11 19 C 12.104854 19 13.34375 16.65625 13.34375 16.65625 C 13.34375 16.65625 15.875486 17.437014 16.65625 16.65625 C 17.437014 15.875486 16.65625 13.34375 16.65625 13.34375 C 16.65625 13.34375 19 12.104854 19 11 C 19 9.895146 16.65625 8.65625 16.65625 8.65625 C 16.65625 8.65625 17.437014 6.1245137 16.65625 5.34375 C 15.875486 4.5629863 13.34375 5.34375 13.34375 5.34375 C 13.34375 5.34375 12.104854 3 11 3 z M 11 7 C 13.209139 7 15 8.790861 15 11 C 15 13.209139 13.209139 15 11 15 C 8.790861 15 7 13.209139 7 11 C 7 8.790861 8.790861 7 11 7 z "
	 class="ColorScheme-Text"
     />
</svg>
